X:52
T: Fáj a kutyámnak a lába
K: F
M: 4/4
L: 1/4
ffgg | a/f/ f c2 | 
ffgg | d/d/ d d2 | 
f>d c c | d/B/ c B2 | 
f>d c B | G/G/ G G2 | 

